!!!COM: Scarlatti, Domenico
!!!CDT: 1685///-1757///
!!!OTL: Sonata in C Major, K.156, L.101
!!!SCT: K. 156
!!!SCT: L. 101
!!!OMD: Allegro
**kern	**kern	**dynam
*staff2	*staff1	*staff1/2
*Icemba	*Icemba	*Icemba
*>[A,A1,A,A2,B,B]	*>[A,A1,A,A2,B,B]	*>[A,A1,A,A2,B,B]
*>norep[A,A2,B]	*>norep[A,A2,B]	*>norep[A,A2,B]
*>A	*>A	*>A
*clefF4	*clefG2	*clefG2
*k[]	*k[]	*k[]
*C:	*C:	*C:
*met(c)	*met(c)	*met(c)
*M4/4	*M4/4	*M4/4
*MM92	*MM92	*MM92
=1-	=1-	=1-
8C/	8r	.
8r	(16gg\LL	p
.	16ff\JJ	.
4r	8ee\L	.
.	8dd\J	.
8r	8cc\L)	.
16g\LL	(8b\	<
16f\JJ	.	(
8e\L	8cc\	(
8d\J	8dd\J	(
=2	=2	=2
8c\L	8ee\L)	(
(16G\L	(8b\	(
16F\JJ	.	(
8E\L	8cc\	(
8D\J	8dd\J	[
4.C/)	8ee\L)	f
.	(16ccc\L	.
.	16aa\JJ	.
.	[4gg\)	.
(8e\	.	.
=3	=3	=3
8f\L)	8gg\L]	.
(8a\	16ff\L	.
.	16dd\JJ	.
8g\	8cc\L	.
.	bq/	.
8f\J	8b\J	.
.	aq/LLL	.
.	bq/JJJ	.
4.e\)	8cc'\L	.
.	16ccc\L	p
.	16aa\JJ	.
.	[4gg\	.
8E\ (8c\	.	.
=4	=4	=4
*^	*^	*
4A/)	4F\	4r	8gg\L]	.
.	.	.	16ff\L	.
.	.	.	16dd\JJ	.
4e/	4G\	4r	8cc\L	.
.	.	.	bq/	.
.	.	.	8b\J	.
.	.	.	aq/LLL	.
.	.	.	bq/JJJ	.
4.C/	4r	8r	4cc\	f
.	.	16aa/LL	.	.
.	.	16ff/JJ	.	.
.	4r	[4gg/	8r	.
*clefG2	*clefG2	*	*	*
8cc'/	.	.	16ee\LL	.
.	.	.	16cc\JJ	.
*v	*v	*	*	*
=5	=5	=5	=5
8b'/L	2gg/_	8dd'\L	.
8g'/	.	(16b\L	.
.	.	16g\JJ	.
8e'/	.	8cc'\L)	.
8c'/J	.	(16ee\L	.
.	.	16cc\JJ	.
4.G/	8gg/L]	4dd\)	.
.	(16aa/L	.	p
.	16ff/JJ	.	.
.	[4gg/	8r	.
8cc'/	.	(16ee\LL)	.
.	.	16cc\JJ	.
=6	=6	=6	=6
8b'/L	2gg/_	8dd'\L)	.
8g'/	.	(16b\L	.
.	.	16g\JJ	.
8e'/	.	(8cc'\L)	.
8c'/J	.	16ee\L	.
.	.	16cc\JJ	.
4.G^/	8gg/L]	4dd\)	.
.	(16ccc/L	.	f
.	16aa/JJ	.	.
.	[4bb-/)	8r	.
8g'/	.	(16ee-\LL	.
.	.	16cc\JJ	.
=7	=7	=7	=7
8f#'/L	8bb-/L]	4dd\)	.
8d'/J	(16aa/L	.	.
.	16ff#/JJ	.	.
8e-'/L	4gg/)	8r	.
8c'/J	.	(16ee-\LL	.
.	.	16cc\JJ	.
4.d^/	8r	4dd\)	.
.	(16ccc/LL	.	p
.	16aa/JJ	.	.
.	[4bb-/)	8r	.
8g'/	.	(16ee-\LL	.
.	.	16cc\JJ	.
=8	=8	=8	=8
8f#'/L	8bb-/L]	4dd\)	.
8d'/J	(16aa/L	.	.
.	16ff#/JJ	.	.
8e-'/L	4gg/)	8r	.
8c'/J	.	(16ee-\LL	.
.	.	16cc\JJ	.
8r	4r	4dd\)	<
8d/ 8f#/L	.	.	(
8en/ 8g/	4r	(4cc\	(
8f#/ 8a/J	.	.	[
*	*v	*v	*
=9	=9	=9
8r	(24dd\LL)	f
.	24b\	.
.	24ee\J	.
8g'/ 8b'/L	[8dd\J)	.
8f#'/ 8a'/	4dd\]	.
8d'/ 8f#'/J	.	.
8r	(24dd\LL	p
.	24b\	.
.	24gg\J	<
8g'/ 8b'/L	[8dd\J	(
8f#'/ 8a'/	4dd\])	(
8d'/ 8f#'/J	.	(
*clefF4	*	*
=10	=10	=10
8r	(24dd\LL	(
.	24b\	(
.	24bb\J	(
8G'\ 8B'\L	[8dd\J)	(
8F#'\ 8A'\	4dd\]	(
8D'\ 8d'\J	.	[
8r	(24dd\LL	f
.	24b\	.
.	24ddd\J	.
8G'\ 8B'\L	[8dd\J)	.
8F#'\ 8A'\	4dd\_	.
8D'\ 8d'\J	.	.
=11	=11	=11
8G'\L	16dd\LL]	.
.	(32cc\L	.
.	32dd\JJ	.
8c\	16ee\L	.
.	32cc\L	.
.	32a\JJJ	.
8d'\	8b'/L)	.
.	(aq/	.
8D\J	(8a/J)	.
.	gq/LLL	.
.	aq/JJJ	.
4GG/	8g'/)	.
.	bbq/LLL	.
.	cccq/JJJ	.
.	8ddd\	.
4r	(16ccc\LL	.
.	32bb\L	.
.	32aa\JJ	.
.	16gg\L	.
.	32ff#\L	.
.	32ee\JJJ	.
*clefG2	*	*
=12	=12	=12
8r	(24dd\LL)	.
.	24b\	.
.	24ee\J	.
8g'/ 8b'/L	[8dd\J)	.
8f#'/ 8a'/	4dd\]	.
8d'/ 8f#'/J	.	.
8r	(24dd\LL	p
.	24b\	<
.	24gg\J	(
8g'/ 8b'/L	[8dd\J)	(
8f#'/ 8a'/	4dd\]	(
8d'/ 8f#'/J	.	(
*clefF4	*	*
=13	=13	=13
8r	(24dd\LL	(
.	24b\	(
.	24bb\J	(
8G'\ 8B'\L	[8dd\J	(
8F#'\ 8A'\	4dd\])	(
8D'\ 8d'\J	.	[
8r	(24dd\LL	f
.	24b\	.
.	24ddd\J	.
8G'\ 8B'\L	[8dd\J)	.
8F#'\ 8A'\	4dd\_	.
8D'\ 8d'\J	.	.
=14	=14	=14
8G'\L	(16dd\LL]	.
.	32cc\L	.
.	32dd\JJ	.
(8c\	16ee\L	.
.	32cc\L	.
.	32a\JJJ	.
8d'\)	8b'/L)	.
.	(aq/	.
(8D\J	(8a/J)	.
.	gq/LLL	.
.	aq/JJJ	.
8GG'\L)	8g'/L)	.
8B'\J	8dd'/J	p
8r	(32ee\LLL	.
.	32cc\JJ	.
.	8.a\J)	.
*clefG2	*	*
8c'/ 8e'/	.	.
=15	=15	=15
8r	(32dd\LLL	.
.	32b\JJ	.
.	8.g\J)	.
(8B/ 8d/L	.	.
8c/ 8e/	(8.aa\L	f
8d/ 8f#/J	.	.
.	32gg\LL	.
.	32aa\JJJ	.
8G'/L)	8bb'\L)	.
8g'/J	8dd'\J	.
8r	(32ee\LLL	p
.	32cc\JJ)	.
.	8.a\J	.
8c'/ 8e'/	.	.
=16	=16	=16
8r	(32dd\LLL	.
.	32b\JJ	.
.	8.g\J)	.
8B/ 8d/L	.	.
8c/ 8e/	(8.aa\L	f
8d/ 8f#/J	.	.
.	32gg\LL	.
.	32aa\JJJ	.
8r	8gg\)	.
*clefF4	*	*
8B'\L	8d'/	.
8c'\	(16e/LL	.
.	32f#/L	.
.	32g/JJ	.
8C'\J	16a/L	.
.	32b/L	.
.	32cc/JJJ	.
=17	=17	=17
*^	*	*
8r	8r	8gg'\L)	.
4G/	8BB\L	8g'\J	.
.	8C\	(8.a/L	.
8F#/	8D'\J	.	.
.	.	32g/LL	.
.	.	32a/JJJ	.
2r	8r	8gg'\)	.
.	8B'\L	8d'/	.
.	8c'\	(16e/LL	.
.	.	32f#/L	.
.	.	32g/JJ	.
.	8C'\J	16a/L	.
.	.	32b/L	.
.	.	32cc/JJJ	.
=18	=18	=18	=18
8r	8r	8gg'\L)	.
4G/	8BB\L	8g'\J	.
.	8C\	(8.a/L	.
8F#/	8D\J	.	.
.	.	32g/LL	.
.	.	32f#/JJJ	.
2r	8r	8gg'\L)	.
.	8B\ 8d\L	8g'\J	.
.	8c\ 8e\	(8.a/L	.
.	8A\ 8c\J	.	.
.	.	32g/LL	.
.	.	32a/JJJ	.
*v	*v	*	*
=19	=19	=19
*>A1	*>A1	*>A1
8B'\ 8d'\L	8gg'\L)	.
8BB'\ 8B'\	8g'\J	.
8C'\ 8c'\	(8.a/L	.
8D'\ 8d'\J	.	.
.	32g/LL	.
.	32f#/JJJ	.
8GG'\L	8g'/)	.
(16G\L	8r	.
16Fn\J	.	.
8E'\)	4r	.
8D'\J	.	.
=20:|!	=20:|!	=20:|!
*>A2	*>A2	*>A2
8B'\ 8d'\L	8gg'\L	.
8BB'\ 8B'\	8g'\J	.
8C'\ 8c'\	(8.a/L	.
8D'\ 8d'\J	.	.
.	32g/LL	.
.	32f#/JJJ	.
8GG'\ 8G'\	8g'/)	.
=!|:	=!|:	=!|:
*>B	*>B	*>B
8r	8dd'\	p
8r	(24ffn\LL	.
.	24ee\	.
.	24dd\J	.
*clefG2	*	*
8a'/	8cc'\J)	.
=21	=21	=21
*	*^	*
8g#'/L	8r	(8b'\	.
(8a/	4ee/	8cc\L	f
8g#/)	.	8b\)	.
8fn'/J	8dd'/	8a'\J	.
4.e/	8ee'/L	4.g#\	.
.	8ee'/J	.	p
.	24ff/LL	.	.
.	24ee/	.	.
.	24dd/J	.	.
8a'/	8cc'/J	8r	.
=22	=22	=22	=22
8g#'/L	(8b/	8r	.
(8a/	4ee/	8cc\L	f
8g#/)	.	8b\)	.
8fn'/J	8dd/	8a'\J	.
4.e^/	8ee'/L	4.g#\	.
.	8ee'/J	.	p
.	(24ff/LL	.	<
.	24ee/	.	(
.	24dd/J	.	(
8d'/	8gg#'/J)	8b\	(
=23	=23	=23	=23
(8c/L	(8cc/L	4.a\ 4.aa\	(
8d/	8dd/	.	(
8c/)	8cc/J)	.	(
8B'/ 8g#'/J	8dd'/ 8bb'/	8r	(
4.A^/ 4.a^/	8cc'/ 8ccc'/L	4r	(
.	8ee/J	.	(
.	(24ff/LL	8r	(
.	24ee/	.	(
.	24dd/J	.	(
8d'/	8gg#'/J)	8b'\	(
=24	=24	=24	=24
(8c/L	(8ee/L	4.a\ 4.aa\	(
8d/	8ff/	.	(
8c/)	8ee/J)	.	(
8B'/ 8g#'/J	8dd'/ 8bb'/	8r	[
4.A^/ 4.a^/	2r	8ee'\ 8ccc'\L	f
.	.	8aa'\J	.
.	.	(24ccc\LL	.
.	.	24bb\	.
.	.	24aa\J	.
8b'/	.	8ggn'\J)	.
=25	=25	=25	=25
*^	*	*	*
8a'/ 8cc'/L	4r	4r	8ff#\L	.
8g'/ 8b'/J	.	.	8ee'\	.
4a/	(8f#\L	8r	(8dd#'\	.
.	8e\J	[8aa/	8cc\J	.
8a/	4.d#\)	8aa/L]	8b\)	.
8r	.	8bb'/J	8r	.
8r	.	(24ccc/LL	4r	.
.	.	24bb/	.	.
.	.	24aa/J	.	.
8r	8b'\	8gg'/J)	.	.
=26	=26	=26	=26	=26
8a'/ 8cc'/L	4r	4r	8ff#'\L	.
8g'/ 8b'/J	.	.	8ee'\	.
4a/	8f#\L	8r	8dd#'\	.
.	8e\J	[8aa^/	(8cc\J	.
4a/	8d#\L	4aa/]	8b\L	.
.	8cn\	.	8ee\	.
4a/	8B\	4aa^/	8dd#\	.
.	8c\J	.	8ee\J	.
=27	=27	=27	=27	=27
4.a/	4B\	8aa'/	8dd#\)	.
.	.	8r	8ff#\ (8aa\L	.
.	4B\	4r	8ee\ 8gg\)	.
8f#'/ 8a'/	.	.	8dd#'\ 8ff#'\J	.
8e/ (8g/L	4B\	(24gg/LL	8ee\L	>
.	.	24ff#/	.	)
.	.	24gg/JJ	.	)
8d#'/ 8f#'/)	.	8r	8ff#'\ 8aa'\)	]
8e'/ 8g'/	4B\	4r	8ee'\ 8gg'\	p
8f#'/ 8a'/J	.	.	8dd#'\ 8ff#'\J	.
=28	=28	=28	=28	=28
8e/ (8g/L	4B\	(24gg/LL	8ee\L	.
.	.	24ff#/	.	.
.	.	24gg/JJ	.	.
8d#'/ 8f#'/)	.	8r	8ff#'\ 8aa'\)	.
8e'/ 8g'/	4B\	4r	8ee'\ 8gg'\	.
8f#'/ 8a'/J	.	.	8dd#'\ 8ff#'\J	.
4.g/	4.e\	2r	8ee'\ 8gg'\L	.
.	.	.	8ee\ (8gg\	f
.	.	.	8ddn\ 8ffn\)	.
8e'/ 8g'/	8A'\	.	8cc#'\ 8ee'\J	.
=29	=29	=29	=29	=29
8d/ (8f/L	4A\	(24ff/LL	8dd\L	>
.	.	24ee/	.	)
.	.	24ff/JJ	.	)
8c#'/ 8e'/	.	8r	8ee\ 8gg\)	]
8d'/ 8f'/)	4A\	4r	8dd'\ 8ff'\	p
8e'/ 8g'/J	.	.	8cc#'\ 8ee'\J	.
8d/ (8f/L	4A\	(24ff/LL	8dd\L	.
.	.	24ee/	.	.
.	.	24ff/JJ	.	.
8c#'/ 8e'/)	.	8r	8ee'\ 8gg'\)	.
8d'/ 8f'/	4A\	4r	8dd'\ 8ff'\	.
8e'/ 8g'/J	.	.	8cc#'\ 8ee'\J	.
=30	=30	=30	=30	=30
4.f/	4.d\	2r	8dd'\ 8ff'\L	.
.	.	.	8dd\ (8ff\	f
.	.	.	8ccn\ 8ee\)	.
8d'/ 8f'/	8G'\	.	8b'\ 8dd'\J	.
(8e/L	4G\	(24ee/LL	8cc\L	>
.	.	24dd/	.	)
.	.	24ee/JJ	.	)
8B'/ 8d'/)	.	8r	8dd\ 8ff\)	]
8c'/ 8e'/	4G\	4r	8cc'\ 8ee'\	p
8d'/ 8f'/J	.	.	8b'\ 8dd'\J	.
=31	=31	=31	=31	=31
8c/ 8e/L	4G\	(24ee/LL	8cc\L	<
.	.	24dd/	.	(
.	.	24ee/JJ	.	(
8B/ 8d/	.	8r	8dd'\ 8ff'\)	(
8c'/ 8e'/	4G\	4r	8cc'\ 8ee'\	(
8d'/ 8f'/J	.	.	8b'\ 8dd'\J	(
8e'/	8c\	2r	16cc'\ 16ee'\LL	(
.	.	.	(32aa\L	(
.	.	.	32gg\JJ	(
8r	8r	.	16ff\L	(
.	.	.	32ee\L	(
.	.	.	32dd\JJJ	(
4r	4r	.	16cc\LL	(
.	.	.	32ee\L	(
.	.	.	32dd\JJ	(
.	.	.	16cc\L	(
.	.	.	32b\L	(
.	.	.	32a\JJJ	[
*v	*v	*	*	*
*clefF4	*	*	*
*	*v	*v	*
=32	=32	=32
*^	*	*
8r	8r	(24g/LL)	f
.	.	24e/	.
.	.	24a/J	.
8e'/	8c'\L	8g/J)	.
4d^/	(8B\	4g/	.
.	8G\J)	.	.
8r	8r	(24g/LL	p
.	.	24e/	.
.	.	24cc/J	.
8e'/	8c\L	[8g/J)	.
4d^/	8B\	4g/]	<
.	8G\J	.	(
=33	=33	=33	=33
8r	8r	(24g/LL	(
.	.	24e/	(
.	.	24ee/J	(
8e'/	8c'\L	[8g/J)	(
4d^/	8B\	4g/_	(
.	8G\J	.	(
2r	8E\L	16g/LL]	(
.	.	32f/L	(
.	.	(32g/JJ	(
.	8F\	16a/L	(
.	.	32g/L	(
.	.	32a/JJJ	(
.	8G\	8.dd\L	(
.	8GG\J	.	(
.	.	32cc\LL	(
.	.	32dd\JJJ	[
*v	*v	*	*
*clefG2	*	*
=34	=34	=34
*^	*	*
8r	8r	(24gg'\LL)	f
.	.	24ee\	.
.	.	24aa\J	.
8e/ 8g/	8c\L	[8gg\J)	.
4d^/ 4g^/	(8B\	4gg\]	.
.	8G\J)	.	.
8r	8r	(24gg\LL	.
.	.	24ee\	.
.	.	24ccc\J	.
8e'/ 8g'/	8c'\L	[8gg\J)	.
4d^/ 4g^/	(8B\	4gg\]	.
.	8G\J)	.	.
=35	=35	=35	=35
8r	8r	(24gg\LL	.
.	.	24ee\	.
.	.	24eee\J	.
8g/	8c'\ 8e'\L	[8gg\J)	.
4d^/ 4g^/	8B\	4gg\_	.
.	8G\J	.	.
*v	*v	*	*
*clefF4	*	*
*^	*	*
2r	8E\ 8c\L	16gg\LL]	.
.	.	(32ff\L	.
.	.	32gg\JJ	.
.	8F\	16aa\L	.
.	.	32ff\L	.
.	.	32dd\JJJ	.
.	8G'\	8ee'\L	.
.	.	(ddq/)	.
.	8GG\J	(8dd\J)	.
=36	=36	=36	=36
2r	8C'\L	8cc'\L)	.
.	8E'\ 8c'\J	8gg'\J	.
.	8r	(32aa\LLL	p
.	.	32ff\JJ	.
.	.	8.dd\J)	.
.	8F'\ 8B'\	.	.
8r	8r	(32gg\LLL	.
.	.	32ee\JJ	.
.	.	8.cc\J)	mf
4c/	8E\L	.	.
.	8F\	(8.d/L	.
8B/	8G\J	.	.
.	.	32c/LL	.
.	.	32d/JJJ	.
=37	=37	=37	=37
2r	8C'\L	8e'\L)	.
.	8E'\ 8c'\J	8gg'\J	.
.	8r	(32aa\LLL	p
.	.	32ff\JJ	.
.	.	8.dd\J)	.
.	8F'\ 8B'\	.	.
8r	8r	(32gg\LLL	.
.	.	32ee\JJ	.
.	.	8.cc\J)	.
4c/	8E\L	.	.
.	8F\	(8.d/L	mf
8r	8G\J	.	.
.	.	32c/LL	.
.	.	32B/JJJ	.
=38	=38	=38	=38
2r	8C'\L	8c'/L)	f
.	8E'\ 8c'\J	8g'/J	.
.	8r	(16a\LL	.
.	.	32b\L	.
.	.	32cc\JJ	.
.	8F'\ 8c'\	16dd\L	.
.	.	32ee\L	.
.	.	32ff\JJJ	.
8r	8r	8ccc'\L)	.
4c/	8E\L	8cc'\J	.
.	8F\	(8.dd\L	.
8B/	8G\J	.	.
.	.	32cc\LL	.
.	.	32dd\JJJ	.
=39	=39	=39	=39
8r	8r	8ccc'\L)	.
4c/	8E\L	8g'\J	.
.	8F\	(16a\LL	.
.	.	32b\L	.
.	.	32cc\JJ	.
8B/	8G\J	16dd\L	.
.	.	32ee\L	.
.	.	32ff\JJJ	.
8r	8r	8ccc'\L)	.
4c/	8E\L	8cc'\J	.
.	8F\	(8.dd\L	.
8B/	8G\J	.	.
.	.	32cc\LL	.
.	.	32dd\JJJ	.
*v	*v	*	*
=40	=40	=40
8C'\ 8c'\L	8ccc'\L)	.
8AA'\ 8A'\	8cc'\J	.
8FF\ 8F\	(8.dd\L	.
8GG'\ 8G'\J	.	.
.	32cc\LL	.
.	32b\JJJ	.
8CC'/ 8C'/	8cc'\)	.
==:|!	==:|!	==:|!
*-	*-	*-
!!!ENC: Craig Stuart Sapp
!!!END: 2005/08/08/
